src/Icon/svgs/location.svg

<svg width="24" height="24" viewBox="0 0 24 24" fill="none" xmlns="http://www.w3.org/2000/svg">
<path fill-rule="evenodd" clip-rule="evenodd" d="M12.5489 19.512C13.3935 18.8395 14.2383 18.0792 15.024 17.2498C17.2087 14.9438 18.5 12.5763 18.5 10.3333C18.4994 8.52829 17.8722 7.01534 16.5954 5.73895C15.3186 4.46256 13.8054 3.83594 12 3.83594C10.1946 3.83594 8.68143 4.46256 7.4046 5.73895C6.12776 7.01534 5.50062 8.52829 5.5 10.3333C5.5 12.5763 6.79135 14.9438 8.97595 17.2498C9.76169 18.0792 10.6065 18.8395 11.4511 19.512C11.6441 19.6657 11.8277 19.8073 12 19.9362C12.1723 19.8073 12.3559 19.6657 12.5489 19.512ZM20.5 10.333C20.5 13.1945 18.9788 15.9833 16.476 18.6253C15.6211 19.5276 14.7081 20.3493 13.7948 21.0766C13.4745 21.3316 13.1765 21.5571 12.9078 21.7511C12.7435 21.8697 12.6234 21.9529 12.5547 21.9987L12 22.3685L11.4453 21.9987C11.3766 21.9529 11.2565 21.8697 11.0922 21.7511C10.8235 21.5571 10.5255 21.3316 10.2052 21.0766C9.2919 20.3493 8.37893 19.5276 7.52405 18.6253C5.02115 15.9833 3.5 13.1945 3.5 10.333C3.50081 7.99728 4.33874 5.97581 5.99063 4.32449C7.64252 2.67317 9.66428 1.83594 12 1.83594C14.3357 1.83594 16.3575 2.67317 18.0094 4.32449C19.6613 5.97581 20.4992 7.99728 20.5 10.333ZM13.75 10.3333C13.75 9.08089 13.2525 8.58335 12 8.58335C10.7475 8.58335 10.25 9.08089 10.25 10.3333C10.25 11.5858 10.7475 12.0833 12 12.0833C13.2525 12.0833 13.75 11.5858 13.75 10.3333ZM15.25 10.3333C15.25 12.4142 14.0809 13.5833 12 13.5833C9.91912 13.5833 8.75 12.4142 8.75 10.3333C8.75 8.25247 9.91912 7.08335 12 7.08335C14.0809 7.08335 15.25 8.25247 15.25 10.3333Z" fill="#1B1C1D"/>
</svg>

<svg xmlns="http://www.w3.org/2000/svg" width="24" height="24" fill="none"><path fill-rule="evenodd" d="M12.549 19.512a24.12 24.12 0 0 0 2.475-2.262c2.185-2.306 3.476-4.674 3.476-6.917-.001-1.805-.628-3.318-1.905-4.594S13.805 3.836 12 3.836s-3.319.627-4.595 1.903S5.501 8.528 5.5 10.333c0 2.243 1.291 4.611 3.476 6.917a24.2 24.2 0 0 0 2.475 2.262l.549.424.549-.424zm7.951-9.179c0 2.861-1.521 5.65-4.024 8.292a26.16 26.16 0 0 1-2.681 2.451l-.887.675-.353.248-.555.37-.555-.37-.353-.248-.887-.675a26.12 26.12 0 0 1-2.681-2.451C5.021 15.983 3.5 13.195 3.5 10.333c.001-2.336.839-4.357 2.491-6.009S9.664 1.836 12 1.836s4.358.837 6.009 2.489a8.22 8.22 0 0 1 2.491 6.009zm-6.75 0c0-1.252-.498-1.75-1.75-1.75s-1.75.498-1.75 1.75.498 1.75 1.75 1.75 1.75-.497 1.75-1.75zm1.5 0c0 2.081-1.169 3.25-3.25 3.25s-3.25-1.169-3.25-3.25 1.169-3.25 3.25-3.25 3.25 1.169 3.25 3.25z" fill="#1B1C1D"/></svg>
